X:1
T:Title
%%score { ( 1 3 ) | ( 2 4 ) }
L:1/8
M:6/8
K:Eb
V:1 treble nm="Grand Piano"
V:3 treble 
V:2 bass 
V:4 bass 
V:1
 z3 z[Q:1/4=78] EF | G>GG GFE | G [GB]2- [GB]EF | G>GG cBG | [DF]3- [DF]EF | G>GG GFE | %6
 G [GB]2- [GB][Ac][Ac] | [GB]>[EG][EB] [DB][B,DA][A,DF] |[M:5/8] [G,E]-[G,E]- [G,E]3 | %9
[M:1/8] [EGB] |[M:3/4] c>c cc de | B4 z2 | d>c de dc |[M:13/16] B/-B/-B/-B/-B/-B-<B z/ z/ z | %14
[M:3/4] [Ge]>[Gd] [Ae][GB] GE | c e3 cc | [GB]>[EG] [EB][DB] [DA][DF] |[M:5/8] E-E- E3 |] %18
V:2
 z3 z [E,G,][E,A,E] | [E,B,E]>[E,B,E][E,B,E] [E,B,E][E,A,E][E,G,] | %2
 [E,B,E] [E,E]2- [E,E][E,G,][E,A,E] | [E,B,E]>[E,B,E][E,B,E] [E,A,E][E,G,E][E,B,E] | %4
 [B,,B,]3- [B,,B,][E,G,][E,A,E] | [E,B,E]>[E,B,E][E,B,E] [E,B,E][E,A,E][E,G,] | %6
 [E,B,E] [E,E]2- [E,E][A,E][A,E] | [E,E]>[E,B,][E,G,] [B,,F,]B,,B,, |[M:5/8] E,-E,- E,3 | %9
[M:1/8] E, |[M:3/4][K:treble] [A,EA]>[A,EA] [A,EA][A,EA] [A,DA][A,CA] | %11
 [E,E][E,E] [E,E][E,E] [E,B,][E,B,] | [F,B,F]>[F,=A,F] [F,B,F][F,G] [F,G,F][F,A,E] | %13
[M:13/16] z F,[B,,G,][B,,A,]3/2[B,,B,][B,,B,] |[M:3/4] [E,B,]>[E,B,] [E,B,][E,E] [E,B,E][E,G,] | %15
 [A,E] [A,CA]3 [A,EA][A,EA] | [E,E]>[E,B,] [E,G,][B,,F,] [B,,B,][B,,A,] | %17
[M:5/8] [E,G,]-[E,G,]- [E,G,]3 |] %18
V:3
 x6 | x6 | x6 | x6 | x6 | x6 | x6 | x6 |[M:5/8] x5 |[M:1/8] x |[M:3/4] x6 | GG GG [Ge][Ge] | x6 | %13
[M:13/16] [B,D]DEF3/2[Ac][Ad] |[M:3/4] x6 | x6 | x6 |[M:5/8] x5 |] %18
V:4
 x6 | x6 | x6 | x6 | x6 | x6 | x6 | x6 |[M:5/8] x5 |[M:1/8] x |[M:3/4][K:treble] x6 | x6 | x6 | %13
[M:13/16] B,,-<B,, z/ z/ z/ z/ z/ z/ z/ z |[M:3/4] x6 | x6 | x6 |[M:5/8] x5 |] %18

